X:5523
T:Return From Fingal, The
O:england
R:march
M:2/4
L:1/16
K:EDor
B2GF EFGA|B2GF E4|AGFA d2A2|B2A2 Bcd2|
B2GF EFGA|B2GF E4|AGFA d2AG|F2E2 E4:|
f2e2 e2dc|B2A2 d2A2|B2A2 d2A2|B2A2 Bcde|
f2e2 e2dc|B2A2 d2A2|AGFA d2AG|F2E2 E4:|


